public/avatar/item1/43.svg

<svg xmlns:xlink="http://www.w3.org/1999/xlink" height="65.4" width="80.15" xmlns="http://www.w3.org/2000/svg"><use height="6.65" transform="translate(41.5 34.9)" width="9.15" xlink:href="#a"/><defs><use height="6.65" width="9.15" xlink:href="#b" id="a"/><g id="b" fill-rule="evenodd"><path d="M4.6-1.25q-.05.6-.8 1.25l-.5.35-.85-.1-.8.95q-.45.4-1.45.4h-.65L-.5 2l-.1.3-.75.95-.55.1h-.75l-1.15-.6q-.75-.55-.75-1.25 0-.5.6-1.2l1.15-.8h1.1l.15-.35q.25-.7.85-.95l1.15-.65q.5-.7 1.05-.8L3-3.3q1.75.25 1.6 2.05" transform="translate(4.55 3.3)"/><path d="M-3.9 1.5q0-1.6 1.6-1.6 1.55 0 1.55 1.6 0 1.55-1.55 1.55-1.6 0-1.6-1.55" fill="#c4900e" transform="translate(4.55 3.3)"/><path d="M1.9-.3q0 1.6-1.6 1.6-1.55 0-1.55-1.6 0-1.55 1.55-1.55 1.6 0 1.6 1.55" fill="#c4900e" transform="translate(4.55 3.3)"/><path d="M1.2-2.7q1.25-.9 2.2.3 1 1.25-.3 2.25-.55.4-1.45-.9Q.7-2.3 1.2-2.7" fill="#c4900e" transform="translate(4.55 3.3)"/><path d="M-2.25 1.7q.65.25.75.4.15.4-.8.4-.5 0-.9-.5-.35-.4-.05-1.1l.4-.45.3-.1.25-.05.05.1v.15l-.5.4.05.35.45.4M.1-1.5l.15.05-.15.2-.25.5.25.55.3.35.45.1.2.2q-.1.2-.4.2l-.2.1-.3.05-.3-.1L-.6.35-.8-.2l-.1-.5.25-.4.35-.25.4-.15m1.55-.4-.1-.2q-.1-.35.25-.45l.3-.05.35.1.35.15.2.05-.15.1-.35.15-.15.35.15.3.1.1-.15.2h-.2l-.2-.25-.4-.55" fill="#f9ca6b" transform="translate(4.55 3.3)"/><path d="m-2.9 1.85.45.05.45.3-.2.1-.3-.1-.4-.35M.35.3.6.4 0 .45l-.4-.4.35.1.4.15m2-2.7v.05l-.1.15q-.15.15-.3.15-.15.05-.2-.3l.6-.05" fill="#f9edd9" transform="translate(4.55 3.3)"/></g></defs></svg>

<?xml version="1.0" encoding="UTF-8" standalone="no"?>
<svg xmlns:xlink="http://www.w3.org/1999/xlink" height="65.4px" width="80.15px" xmlns="http://www.w3.org/2000/svg">
  <g transform="matrix(1.0, 0.0, 0.0, 1.0, 31.6, 13.8)">
    <use height="6.65" transform="matrix(1.0, 0.0, 0.0, 1.0, 9.9, 21.1)" width="9.15" xlink:href="#sprite0"/>
  </g>
  <defs>
    <g id="sprite0" transform="matrix(1.0, 0.0, 0.0, 1.0, 4.55, 3.3)">
      <use height="6.65" transform="matrix(1.0, 0.0, 0.0, 1.0, -4.55, -3.3)" width="9.15" xlink:href="#shape0"/>
    </g>
    <g id="shape0" transform="matrix(1.0, 0.0, 0.0, 1.0, 4.55, 3.3)">
      <path d="M4.6 -1.25 Q4.55 -0.65 3.8 0.0 L3.3 0.35 2.45 0.25 1.65 1.2 Q1.2 1.6 0.2 1.6 L-0.45 1.6 -0.5 2.0 -0.6 2.3 -1.35 3.25 -1.9 3.35 -2.65 3.35 -3.8 2.75 Q-4.55 2.2 -4.55 1.5 -4.55 1.0 -3.95 0.3 L-2.8 -0.5 -2.05 -0.5 -1.7 -0.5 -1.55 -0.85 Q-1.3 -1.55 -0.7 -1.8 L0.45 -2.45 Q0.95 -3.15 1.5 -3.25 L3.0 -3.3 Q4.75 -3.05 4.6 -1.25" fill="#000000" fill-rule="evenodd" stroke="none"/>
      <path d="M-3.9 1.5 Q-3.9 -0.1 -2.3 -0.1 -0.75 -0.1 -0.75 1.5 -0.75 3.05 -2.3 3.05 -3.9 3.05 -3.9 1.5" fill="#c4900e" fill-rule="evenodd" stroke="none"/>
      <path d="M1.9 -0.3 Q1.9 1.3 0.3 1.3 -1.25 1.3 -1.25 -0.3 -1.25 -1.85 0.3 -1.85 1.9 -1.85 1.9 -0.3" fill="#c4900e" fill-rule="evenodd" stroke="none"/>
      <path d="M1.2 -2.7 Q2.45 -3.6 3.4 -2.4 4.4 -1.15 3.1 -0.15 2.55 0.25 1.65 -1.05 0.7 -2.3 1.2 -2.7" fill="#c4900e" fill-rule="evenodd" stroke="none"/>
      <path d="M-2.25 1.7 Q-1.6 1.95 -1.5 2.1 -1.35 2.5 -2.3 2.5 -2.8 2.5 -3.2 2.0 -3.55 1.6 -3.25 0.9 L-2.85 0.45 -2.55 0.35 -2.3 0.3 -2.25 0.4 -2.25 0.55 -2.75 0.95 -2.7 1.3 -2.25 1.7" fill="#f9ca6b" fill-rule="evenodd" stroke="none"/>
      <path d="M0.1 -1.5 L0.25 -1.45 0.1 -1.25 -0.15 -0.75 0.1 -0.2 0.4 0.15 0.85 0.25 1.05 0.45 Q0.95 0.65 0.65 0.65 L0.45 0.75 0.15 0.8 -0.15 0.7 -0.6 0.35 -0.8 -0.2 -0.9 -0.7 -0.65 -1.1 -0.3 -1.35 0.1 -1.5" fill="#f9ca6b" fill-rule="evenodd" stroke="none"/>
      <path d="M1.65 -1.9 L1.55 -2.1 Q1.45 -2.45 1.8 -2.55 L2.1 -2.6 2.45 -2.5 2.8 -2.35 3.0 -2.3 2.85 -2.2 2.5 -2.05 2.35 -1.7 2.5 -1.4 2.6 -1.3 2.45 -1.1 2.25 -1.1 2.05 -1.35 1.65 -1.9" fill="#f9ca6b" fill-rule="evenodd" stroke="none"/>
      <path d="M-2.9 1.85 L-2.45 1.9 -2.0 2.2 -2.2 2.3 -2.5 2.2 -2.9 1.85" fill="#f9edd9" fill-rule="evenodd" stroke="none"/>
      <path d="M0.35 0.3 L0.6 0.4 0.0 0.45 -0.4 0.05 -0.05 0.15 0.35 0.3" fill="#f9edd9" fill-rule="evenodd" stroke="none"/>
      <path d="M2.35 -2.4 L2.35 -2.35 2.25 -2.2 Q2.1 -2.05 1.95 -2.05 1.8 -2.0 1.75 -2.35 L2.35 -2.4" fill="#f9edd9" fill-rule="evenodd" stroke="none"/>
    </g>
  </defs>
</svg>
